public/images/icons/Typescript.svg

<svg width="197" height="197" fill="none" xmlns="http://www.w3.org/2000/svg"><path d="M183.927.796H13.487C6.428.796.706 6.52.706 13.58v170.439c0 7.06 5.723 12.783 12.783 12.783h170.439c7.059 0 12.782-5.723 12.782-12.783V13.579c0-7.06-5.723-12.783-12.782-12.783Z" fill="#1A7BE6"/><path d="M64.087 116.821v-10.352h54.394v10.352H97.409v57.823H85.16v-57.823H64.087Zm100.055 8.389c-.31-2.907-1.62-5.171-3.927-6.791-2.286-1.62-5.26-2.43-8.922-2.43-2.575 0-4.783.389-6.624 1.165-1.843.777-3.251 1.831-4.228 3.163-.977 1.331-1.476 2.851-1.498 4.561 0 1.419.322 2.652.965 3.694.666 1.043 1.565 1.931 2.697 2.663a18.925 18.925 0 0 0 3.761 1.798c1.377.488 2.763.899 4.162 1.232l6.391 1.597c2.575.6 5.048 1.41 7.424 2.431 2.396 1.021 4.538 2.308 6.424 3.861a17.14 17.14 0 0 1 4.527 5.626c1.11 2.197 1.664 4.772 1.664 7.723 0 3.995-1.02 7.512-3.061 10.553-2.042 3.018-4.994 5.381-8.856 7.09-3.839 1.686-8.488 2.53-13.948 2.53-5.304 0-9.909-.821-13.814-2.464-3.884-1.642-6.925-4.038-9.121-7.19-2.175-3.151-3.351-6.99-3.529-11.518h12.15c.177 2.375.91 4.35 2.197 5.926 1.288 1.575 2.963 2.751 5.027 3.528 2.086.777 4.416 1.165 6.991 1.165 2.685 0 5.037-.399 7.057-1.198 2.042-.821 3.64-1.953 4.793-3.396 1.154-1.464 1.742-3.172 1.764-5.126-.022-1.775-.543-3.24-1.564-4.394-1.021-1.176-2.452-2.152-4.294-2.929-1.82-.799-3.95-1.51-6.392-2.131l-7.756-1.998c-5.615-1.441-10.053-3.627-13.315-6.557-3.24-2.951-4.86-6.869-4.86-11.751 0-4.017 1.087-7.534 3.262-10.553 2.197-3.017 5.181-5.359 8.955-7.024 3.772-1.686 8.044-2.53 12.816-2.53 4.838 0 9.077.844 12.716 2.53 3.661 1.665 6.536 3.984 8.622 6.958 2.086 2.952 3.163 6.347 3.229 10.186h-11.885Z" fill="#1C1C1C"/></svg>

<svg width="197" height="197" viewBox="0 0 197 197" fill="none" xmlns="http://www.w3.org/2000/svg">
<path d="M183.927 0.796387H13.4875C6.4277 0.796387 0.70459 6.5195 0.70459 13.5793V184.018C0.70459 191.078 6.4277 196.801 13.4875 196.801H183.927C190.986 196.801 196.709 191.078 196.709 184.018V13.5793C196.709 6.5195 190.986 0.796387 183.927 0.796387Z" fill="#1A7BE6"/>
<path d="M64.0869 116.821V106.469H118.481V116.821H97.4095V174.644H85.1591V116.821H64.0869ZM164.142 125.21C163.832 122.303 162.522 120.039 160.215 118.419C157.929 116.799 154.955 115.989 151.293 115.989C148.718 115.989 146.51 116.378 144.669 117.154C142.826 117.931 141.418 118.985 140.441 120.317C139.464 121.648 138.965 123.168 138.943 124.878C138.943 126.297 139.265 127.53 139.908 128.572C140.574 129.615 141.473 130.503 142.605 131.235C143.736 131.946 144.99 132.545 146.366 133.033C147.743 133.521 149.129 133.932 150.528 134.265L156.919 135.862C159.494 136.462 161.967 137.272 164.343 138.293C166.739 139.314 168.881 140.601 170.767 142.154C172.675 143.708 174.185 145.583 175.294 147.78C176.404 149.977 176.958 152.552 176.958 155.503C176.958 159.498 175.938 163.015 173.897 166.056C171.855 169.074 168.903 171.437 165.041 173.146C161.202 174.832 156.553 175.676 151.093 175.676C145.789 175.676 141.184 174.855 137.279 173.212C133.395 171.57 130.354 169.174 128.158 166.022C125.983 162.871 124.807 159.032 124.629 154.504H136.779C136.956 156.879 137.689 158.854 138.976 160.43C140.264 162.005 141.939 163.181 144.003 163.958C146.089 164.735 148.419 165.123 150.994 165.123C153.679 165.123 156.031 164.724 158.051 163.925C160.093 163.104 161.691 161.972 162.844 160.529C163.998 159.065 164.586 157.357 164.608 155.403C164.586 153.628 164.065 152.163 163.044 151.009C162.023 149.833 160.592 148.857 158.75 148.08C156.93 147.281 154.8 146.57 152.358 145.949L144.602 143.951C138.987 142.51 134.549 140.324 131.287 137.394C128.047 134.443 126.427 130.525 126.427 125.643C126.427 121.626 127.514 118.109 129.689 115.09C131.886 112.073 134.87 109.731 138.644 108.066C142.416 106.38 146.688 105.536 151.46 105.536C156.298 105.536 160.537 106.38 164.176 108.066C167.837 109.731 170.712 112.05 172.798 115.024C174.884 117.976 175.961 121.371 176.027 125.21H164.142Z" fill="#1C1C1C"/>
</svg>
